X: 12312
T: O Jenny come down to Jock
%R: jig
B: James Oswald "The Caledonian Pocket Companion" v.1 b.1 p.31 #2
Z: 2020 John Chambers <jc:trillian.mit.edu>
M: 6/8
L: 1/8
K: G
"_Brisk"D |\
GAG g2a | (fed) e2d | (e/f/g)B (AB)c | (BAG) G2 :: (B/c/) |\
(de)d (dB)g | GAB A2g |
(fg)a (ef)g | Te2d d2f |\
(g/a/b)g a2d | (e/f/g)B ABc | Bcd dBg | TA2G G2 :|
